svgs/regular/face-hand-over-mouth.svg

<svg xmlns="http://www.w3.org/2000/svg" viewBox="0 0 512 512"><!--! Font Awesome Pro 6.4.2 by @fontawesome - https://fontawesome.com License - https://fontawesome.com/license (Commercial License) Copyright 2023 Fonticons, Inc. --><path d="M256 48C141.1 48 48 141.1 48 256c0 59 24.6 112.2 64 150.1v10.7c0 21.9 5.5 42.5 15.3 60.5C51.2 433 0 350.5 0 256C0 114.6 114.6 0 256 0S512 114.6 512 256c0 113.1-73.3 209.1-175.1 242.9l49-49c11.7-11.7 16.1-27.9 13.2-43C439.1 369 464 315.4 464 256c0-114.9-93.1-208-208-208zM144.4 208a32 32 0 1 1 64 0 32 32 0 1 1 -64 0zm192-32a32 32 0 1 1 0 64 32 32 0 1 1 0-64zM299.3 276.7c6.2 6.2 6.2 16.4 0 22.6L248 350.6c-2.6 2.6-2.6 6.8 0 9.4s6.8 2.6 9.4 0l67.3-67.3c6.2-6.2 16.4-6.2 22.6 0s6.2 16.4 0 22.6L280 382.6c-2.6 2.6-2.6 6.8 0 9.4s6.8 2.6 9.4 0l51.3-51.3c6.2-6.2 16.4-6.2 22.6 0s6.2 16.4 0 22.6L312 414.6c-2.6 2.6-2.6 6.8 0 9.4s6.8 2.6 9.4 0l19.3-19.3c6.2-6.2 16.4-6.2 22.6 0s6.2 16.4 0 22.6l-56.8 56.8C288.7 502 264.4 512 239.2 512c-52.6 0-95.2-42.6-95.2-95.2V384 330.4c0-11 9-20 20-20s20 9 20 20v19.7c0 7.1 8.6 10.7 13.7 5.7l79-79c6.2-6.2 16.4-6.2 22.6 0z"/></svg>

<svg xmlns="http://www.w3.org/2000/svg" viewBox="0 0 512 512"><!--! Font Awesome Pro 6.1.1 by @fontawesome - https://fontawesome.com License - https://fontawesome.com/license (Commercial License) Copyright 2022 Fonticons, Inc. --><path d="M256 47.1C141.1 47.1 48 141.1 48 255.1C48 314.1 72.55 368.2 112 406.1V416.8C112 438.7 117.5 459.3 127.3 477.4C51.17 432.1 0 350.5 0 256C0 114.6 114.6 0 256 0C397.4 0 512 114.6 512 256C512 369.1 438.7 465.1 336.9 498.9L385.9 449.9C397.6 438.2 402 422 399.1 406.9C439.1 369 464 315.4 464 256C464 141.1 370.9 48 256 48V47.1zM208.4 207.1C208.4 225.7 194 239.1 176.4 239.1C158.7 239.1 144.4 225.7 144.4 207.1C144.4 190.3 158.7 175.1 176.4 175.1C194 175.1 208.4 190.3 208.4 207.1zM304.4 207.1C304.4 190.3 318.7 175.1 336.4 175.1C354 175.1 368.4 190.3 368.4 207.1C368.4 225.7 354 239.1 336.4 239.1C318.7 239.1 304.4 225.7 304.4 207.1zM299.3 276.7C305.6 282.9 305.6 293.1 299.3 299.3L248 350.6C245.4 353.2 245.4 357.4 248 360C250.6 362.6 254.8 362.6 257.4 360L324.7 292.7C330.9 286.4 341.1 286.4 347.3 292.7C353.6 298.9 353.6 309.1 347.3 315.3L280 382.6C277.4 385.2 277.4 389.4 280 392C282.6 394.6 286.8 394.6 289.4 392L340.7 340.7C346.9 334.4 357.1 334.4 363.3 340.7C369.6 346.9 369.6 357.1 363.3 363.3L312 414.6C309.4 417.2 309.4 421.4 312 424C314.6 426.6 318.8 426.6 321.4 424L340.7 404.7C346.9 398.4 357.1 398.4 363.3 404.7C369.6 410.9 369.6 421.1 363.3 427.3L306.5 484.1C288.7 501.1 264.4 512 239.2 512C186.6 512 144 469.4 144 416.8V330.4C144 319.4 152.1 310.4 164 310.4C175 310.4 184 319.4 184 330.4V350.1C184 357.2 192.6 360.8 197.7 355.7L276.7 276.7C282.9 270.4 293.1 270.4 299.3 276.7L299.3 276.7z"/></svg>
